filemojicompat-defaults/icons/ic_twemoji.svg

<svg xmlns="http://www.w3.org/2000/svg" viewBox="0 0 36 36"><path fill="#FFCB4C" d="M35.597 14.232c2.083 9.72-4.108 19.289-13.828 21.372C12.049 37.687 2.48 31.496.397 21.776-1.686 12.056 4.506 2.487 14.225.404c9.72-2.084 19.289 4.108 21.372 13.828"/><path fill="#F4F7F9" d="M29.284 9.012c.779 3.636-1.537 7.216-5.173 7.995-3.636.779-7.216-1.537-7.996-5.173-.779-3.636 1.537-7.216 5.173-7.995s7.217 1.536 7.996 5.173z"/><circle fill="#292F33" cx="22.306" cy="9.291" r="2.037"/><path fill="#F4F7F9" d="M14.088 14.282c.456 2.126-.899 4.219-3.025 4.675s-4.219-.899-4.675-3.025c-.456-2.126.899-4.219 3.025-4.675s4.219.899 4.675 3.025z"/><ellipse transform="rotate(-12.095 10.236 15.853)" fill="#292F33" cx="10.238" cy="15.857" rx="1.942" ry="1.942"/><path fill="#65471B" d="M18.625 20.937c-3.543.759-5.981.85-9.01.908-.691.015-1.955.419-1.536 2.375.838 3.911 6.379 7.837 12.642 6.495 6.262-1.342 9.708-7.194 8.87-11.105-.419-1.956-1.739-1.808-2.375-1.536-2.786 1.187-5.048 2.104-8.591 2.863z"/><path fill="#E8596E" d="M11 24.004v6c0 3 2 6 6 6s6-3 6-6v-6H11z"/><path fill="#DD2F45" d="M17 31.883c.301 0 .545-.244.545-.545v-6.295h-1.091v6.295c.001.301.245.545.546.545z"/><path fill="#FFF" d="M10.034 23.801s3.143.349 9.01-.908c5.867-1.257 8.591-2.864 8.591-2.864s-1.117 4.33-7.962 5.797c-6.845 1.467-9.639-2.025-9.639-2.025z"/></svg>

<?xml version="1.0" encoding="UTF-8" standalone="no"?><!DOCTYPE svg PUBLIC "-//W3C//DTD SVG 1.1//EN" "http://www.w3.org/Graphics/SVG/1.1/DTD/svg11.dtd">
<svg width="36px" height="36px" version="1.1" xmlns="http://www.w3.org/2000/svg"
    xml:space="preserve" style="fill-rule:evenodd;clip-rule:evenodd;stroke-linejoin:round;stroke-miterlimit:2;"><g transform="matrix(0.833181,0,0,0.833181,3.00225,3.00339)"><path d="M35.597,14.232C37.68,23.952 31.489,33.521 21.769,35.604C12.049,37.687 2.48,31.496 0.397,21.776C-1.686,12.056 4.506,2.487 14.225,0.404C23.945,-1.68 33.514,4.512 35.597,14.232" style="fill:#ffcb4c;fill-rule:nonzero;"/></g><g transform="matrix(0.833181,0,0,0.833181,3.00225,3.00339)"><path d="M29.284,9.012C30.063,12.648 27.747,16.228 24.111,17.007C20.475,17.786 16.895,15.47 16.115,11.834C15.336,8.198 17.652,4.618 21.288,3.839C24.924,3.06 28.505,5.375 29.284,9.012Z" style="fill:#f4f7f9;fill-rule:nonzero;"/></g><g transform="matrix(0.833181,0,0,0.833181,3.00225,3.00339)"><circle cx="22.306" cy="9.291" r="2.037" style="fill:#292f33;"/></g><g transform="matrix(0.833181,0,0,0.833181,3.00225,3.00339)"><path d="M14.088,14.282C14.544,16.408 13.189,18.501 11.063,18.957C8.937,19.413 6.844,18.058 6.388,15.932C5.932,13.806 7.287,11.713 9.413,11.257C11.539,10.801 13.632,12.156 14.088,14.282Z" style="fill:#f4f7f9;fill-rule:nonzero;"/></g><g transform="matrix(0.814685,-0.174579,0.174579,0.814685,0.423965,5.08359)"><circle cx="10.238" cy="15.857" r="1.942" style="fill:#292f33;"/></g><g transform="matrix(0.833181,0,0,0.833181,3.00225,3.00339)"><path d="M18.625,20.937C15.082,21.696 12.644,21.787 9.615,21.845C8.924,21.86 7.66,22.264 8.079,24.22C8.917,28.131 14.458,32.057 20.721,30.715C26.983,29.373 30.429,23.521 29.591,19.61C29.172,17.654 27.852,17.802 27.216,18.074C24.43,19.261 22.168,20.178 18.625,20.937Z" style="fill:#65471b;fill-rule:nonzero;"/></g><g transform="matrix(0.833181,0,0,0.833181,3.00225,3.00339)"><path d="M11,24.004L11,30.004C11,33.004 13,36.004 17,36.004C21,36.004 23,33.004 23,30.004L23,24.004L11,24.004Z" style="fill:#e8596e;fill-rule:nonzero;"/></g><g transform="matrix(0.833181,0,0,0.833181,3.00225,3.00339)"><path d="M17,31.883C17.301,31.883 17.545,31.639 17.545,31.338L17.545,25.043L16.454,25.043L16.454,31.338C16.455,31.639 16.699,31.883 17,31.883Z" style="fill:#dd2f45;fill-rule:nonzero;"/></g><g transform="matrix(0.833181,0,0,0.833181,3.00225,3.00339)"><path d="M10.034,23.801C10.034,23.801 13.177,24.15 19.044,22.893C24.911,21.636 27.635,20.029 27.635,20.029C27.635,20.029 26.518,24.359 19.673,25.826C12.828,27.293 10.034,23.801 10.034,23.801Z" style="fill:#fff;fill-rule:nonzero;"/></g></svg>
